X:49
T:Cold Frosty Morning
S:Jim Coon to CoMandoList TOW
R:reel
M:2/4
L:1/16
K:Am
"Am"EDEG A2AA|cAcd e2A2|\
"G"B2G2 G2D2|GABc d4|!
"Am"EDEG A2AA|cAcd e2ed|\
"Am"cBAc "G"BAGB|"Am"A4 A4:|!
|:"Am"e2a2 a3b|a2g2 e2d2|\
"G"ede^f gbgf| ed^cd e4|!
"Am"A2AA "C"c2cc|"D"dcd2 "E7"e2ed|\
"Am"cBAc "G"BAGB| "Am"A4 A4:|
